X: 1833
T: Yellow John
M:6/8
L:1/8
B:O'Neill's 1833
N:"2nd Setting"
Z:"Transcribed by Bob Safranek, rjs@gsp.org"
K:D
   (d/e/) | fed  AFA  | BGB AFA | fed  AFA  | Bgf  e2 (d/e/) |
            fed  AFA  | BGB AFA | fed  AFA  | B2 c d2       :|
|: (d/e/) | f2 a e2 a | ded cBA | f2 a e2 a | gfg  a2   a    |
            bgb  afa  | geg fde | fed  AFA  | B2 c d2       :|


